icons/evolvere-blue-folders-flat-vivid-dark-fallback/apps/64/geogebra.svg

<svg xmlns="http://www.w3.org/2000/svg" xmlns:xlink="http://www.w3.org/1999/xlink" viewBox="0 0 64 64"><g color="#000"><path d="m0 4v30 28l2 2h30 30l2-2v-28-30h-32-32" fill="#494dcb"/><path d="m2 0l-2 1v3h32 32v-3l-2-1h-30-30" fill="#888cff"/></g><path d="m0 3v3l2-2" fill="#b4b7ff"/><path d="m64 6l-2-2 2-1z" fill="#6c70e1"/><g transform="translate(-.776-1.026)"><path d="M59.662132 36.864777A24.395184 20.329319 0 0 1 35.26695 57.1941 24.395184 20.329319 0 0 1 10.871765 36.864777 24.395184 20.329319 0 0 1 35.26695 16.535458 24.395184 20.329319 0 0 1 59.662132 36.864777" transform="matrix(.78442 0 0 .77434 5.084 6.02)" fill="none" stroke="#e6e6f1" color="#000" stroke-width="2.566"/><g id="0" fill="#e6e6f1"><path d="m17.14734 16.53546a3.535534 3.535534 0 0 1 -3.535534 3.535533 3.535534 3.535534 0 0 1 -3.535534 -3.535533 3.535534 3.535534 0 0 1 3.535534 -3.535534 3.535534 3.535534 0 0 1 3.535534 3.535534" transform="matrix(1.37206 0 0 1.37206 32.921 14.626)" color="#000"/></g><use xlink:href="#0" transform="translate(-10.32-16.888)" width="64" height="64"/><use xlink:href="#0" transform="translate(-31.608-14.599)" width="64" height="64"/><use xlink:href="#0" transform="translate(-35.698 4.84)" width="64" height="64"/><use height="64" width="64" transform="translate(-16.177 12.843)" xlink:href="#0"/></g></svg>

<?xml version="1.0" encoding="UTF-8" standalone="no"?>
<!-- Created with Inkscape (http://www.inkscape.org/) -->

<svg
   xmlns:dc="http://purl.org/dc/elements/1.1/"
   xmlns:cc="http://creativecommons.org/ns#"
   xmlns:rdf="http://www.w3.org/1999/02/22-rdf-syntax-ns#"
   xmlns:svg="http://www.w3.org/2000/svg"
   xmlns="http://www.w3.org/2000/svg"
   xmlns:xlink="http://www.w3.org/1999/xlink"
   xmlns:sodipodi="http://sodipodi.sourceforge.net/DTD/sodipodi-0.dtd"
   xmlns:inkscape="http://www.inkscape.org/namespaces/inkscape"
   width="64"
   height="64"
   id="svg13094"
   version="1.1"
   inkscape:version="0.91+devel r"
   sodipodi:docname="geogebra.svg">
  <sodipodi:namedview
     id="base"
     pagecolor="#ffffff"
     bordercolor="#666666"
     borderopacity="1.0"
     inkscape:pageopacity="0"
     inkscape:pageshadow="2"
     inkscape:zoom="11.313709"
     inkscape:cx="17.825055"
     inkscape:cy="30.944923"
     inkscape:document-units="px"
     inkscape:current-layer="svg13094"
     showgrid="false"
     inkscape:snap-bbox="true"
     inkscape:bbox-paths="true"
     inkscape:bbox-nodes="true"
     inkscape:snap-bbox-edge-midpoints="true"
     inkscape:snap-bbox-midpoints="true"
     inkscape:object-paths="true"
     inkscape:snap-intersection-paths="true"
     inkscape:object-nodes="true"
     inkscape:snap-smooth-nodes="true"
     inkscape:snap-midpoints="true"
     inkscape:snap-object-midpoints="true"
     inkscape:snap-center="true"
     showguides="true"
     inkscape:guide-bbox="true"
     inkscape:window-width="1920"
     inkscape:window-height="1023"
     inkscape:window-x="-10"
     inkscape:window-y="35"
     inkscape:window-maximized="1"
     inkscape:snap-global="false"
     fit-margin-top="0"
     fit-margin-left="0"
     fit-margin-right="0"
     fit-margin-bottom="0"
     showborder="true"
     inkscape:showpageshadow="false"
     inkscape:snap-page="true">
    <inkscape:grid
       type="xygrid"
       id="grid3075"
       empspacing="5"
       visible="true"
       enabled="true"
       snapvisiblegridlinesonly="true"
       originx="1.6362304e-08px"
       originy="18px" />
  </sodipodi:namedview>
  <defs
     id="defs13096" />
  <metadata
     id="metadata13099">
    <rdf:RDF>
      <cc:Work
         rdf:about="">
        <dc:format>image/svg+xml</dc:format>
        <dc:type
           rdf:resource="http://purl.org/dc/dcmitype/StillImage" />
        <dc:title></dc:title>
      </cc:Work>
    </rdf:RDF>
  </metadata>
  <path
     style="color:#000000;fill:#494dcb;fill-opacity:1;fill-rule:nonzero;stroke:none;stroke-width:2.28571415;marker:none;visibility:visible;display:inline;overflow:visible;enable-background:accumulate"
     d="M 0 4 L 0 34 L 0 62 L 2 64 L 32 64 L 62 64 L 64 62 L 64 34 L 64 4 L 32 4 L 0 4 z "
     id="path6498" />
  <path
     style="color:#000000;fill:#888cff;fill-opacity:1;fill-rule:nonzero;stroke:none;marker:none;visibility:visible;display:inline;overflow:visible;enable-background:accumulate;stroke-width:2.28571415000000000"
     d="M 2 0 L 0 1 L 0 4 L 32 4 L 64 4 L 64 1 L 62 0 L 32 0 L 2 0 z "
     id="path6502" />
  <path
     style="fill:#b4b7ff;fill-opacity:1;fill-rule:nonzero"
     d="M 0,3 0,6 2,4 Z"
     id="path4298"
     inkscape:connector-curvature="0"
     sodipodi:nodetypes="cccc" />
  <path
     d="M 64,6 62,4 64,3 z"
     id="path3028"
     style="fill:#6c70e1;fill-opacity:1"
     inkscape:connector-curvature="0" />
  <g
     id="g3043"
     inkscape:export-filename="folder.png"
     inkscape:export-xdpi="90"
     inkscape:export-ydpi="90"
     transform="translate(-0.62500009,0.082283)" />
  <g
     id="scalable"
     transform="matrix(1.0385892,0,0,1.0385892,1214.7222,1878.8121)"
     inkscape:label="#g3701"
     style="fill:#ffffff" />
  <g
     id="g3859"
     transform="translate(-0.77563952,-1.0262539)">
    <path
       sodipodi:type="arc"
       style="color:#000000;fill:none;stroke:#e6e6f1;stroke-width:2.56619072;stroke-miterlimit:4;stroke-opacity:1;stroke-dasharray:none;marker:none;visibility:visible;display:inline;overflow:visible;enable-background:accumulate"
       id="path3808"
       sodipodi:cx="35.266949"
       sodipodi:cy="36.864777"
       sodipodi:rx="24.395184"
       sodipodi:ry="20.329319"
       d="M 59.662132,36.864777 A 24.395184,20.329319 0 0 1 35.266949,57.194096 24.395184,20.329319 0 0 1 10.871765,36.864777 24.395184,20.329319 0 0 1 35.266949,16.535458 24.395184,20.329319 0 0 1 59.662132,36.864777 Z"
       transform="matrix(0.78442029,0,0,0.7743429,5.0837706,6.0207016)" />
    <g
       id="g3848"
       style="fill:#e6e6f1;fill-opacity:1">
      <path
         sodipodi:type="arc"
         style="color:#000000;fill:#e6e6f1;fill-opacity:1;fill-rule:nonzero;stroke:none;stroke-width:1.76776683;marker:none;visibility:visible;display:inline;overflow:visible;enable-background:accumulate"
         id="path3831"
         sodipodi:cx="13.611805"
         sodipodi:cy="16.53546"
         sodipodi:rx="3.5355337"
         sodipodi:ry="3.5355337"
         d="m 17.147339,16.53546 a 3.5355337,3.5355337 0 0 1 -3.535534,3.535533 3.5355337,3.5355337 0 0 1 -3.535534,-3.535533 3.5355337,3.5355337 0 0 1 3.535534,-3.535534 3.5355337,3.5355337 0 0 1 3.535534,3.535534 z"
         transform="matrix(1.3720563,0,0,1.3720563,32.920627,14.626438)" />
    </g>
    <use
       x="0"
       y="0"
       xlink:href="#g3848"
       id="use3853"
       transform="translate(-10.32027,-16.888252)"
       width="64"
       height="64"
       style="fill:#e6e6f1;fill-opacity:1" />
    <use
       x="0"
       y="0"
       xlink:href="#g3848"
       id="use3855"
       transform="translate(-31.608203,-14.598545)"
       width="64"
       height="64"
       style="fill:#e6e6f1;fill-opacity:1" />
    <use
       x="0"
       y="0"
       xlink:href="#g3848"
       id="use3857"
       transform="translate(-35.697757,4.8402377)"
       width="64"
       height="64"
       style="fill:#e6e6f1;fill-opacity:1" />
    <use
       height="64"
       width="64"
       transform="translate(-16.176967,12.843051)"
       id="use3851"
       xlink:href="#g3848"
       y="0"
       x="0"
       style="fill:#e6e6f1;fill-opacity:1" />
  </g>
</svg>
